X:1
T:We Are But a Band of Children
T:A. F. Myers
T:We Are But a Band of Children
T:Public Domain
T:Public Domain
C:A. F. Myers
Z:Public Domain
%%score 1 2
L:1/8
M:2/4
K:Bb
V:1 treble 
V:2 bass 
V:1
 [DF][DF] [DF][DF] | [EG][DF] [DF][FB] | [DB][EA] [EA][Ec] | [Ec][DB] [DB]2 | [DF][DF] [DF][DF] | %5
w: 1.~We are but a|band of child- ren,|We are few, and|weak and small,|But we want to|
w: 2.~There are ma- ny|lit- tle child- ren,|Far a- way a-|cross the sea,|Who have ne- ver|
w: 3.~So we want to|send them teach- ers,|Who will teach them|how to pray,|To the dear and|
w: 4.~It was Je- sus|died to save them,|’Twas for this to|earth He came;|He will make them|
w: 5.~’Tis the Bi- ble|that will lead them|From the dark- ness|in- to light,|And we all are|
w: 6.~Cheer- ful- ly we|give our pen- nies,|And we like to|give and plan,|For we are young|
 [EG][DF] [DF][DB] | [Fd]>[Ec] [FB][FB] | [Ec][EA] x2 | [DB]2 x2 ||"^Refrain" [Fd]2 [Ec]>[Ec] | %10
w: work for Je- sus,|And there’s work e-|nough for|all.||
w: heard of Je- sus,|But to i- dols|bend the|knee.||
w: lov- ing Sav- ior,|Who will wash their|sins a-|way.|We are a|
w: pure and hap- py,|When they learn to|love His|name.||
w: glad to help them|Break a- way from|hea- then|night.||
w: mis- sion- ar- ies,|Do- ing all the|good we|can.||
 [DB]/[DB]/[DB]/[DB]/ [DF]2 | [EA]/[EA]/[EA]/[EA]/ [EG]2 | [DB]/[DB]/[DB]/[DB]/ [DF]2 | %13
w: |||
w: |||
w: mis- sion- a- ry band,|Mis- sion- a- ry band,|mis- sion- a- ry band;|
w: |||
w: |||
w: |||
 [Fd]2 [Ec]>[Ec] | [DB]/[DB]/[DB]/[DB]/ [DF]2 | [FB][=EB] [_EA]>[Ec] x2 | [DB]6 |] %17
w: ||||
w: ||||
w: We are a|mis- sion- a- ry band,|Do- ing all we|can.|
w: ||||
w: ||||
w: ||||
V:2
 [B,,B,][B,,B,] [B,,B,][B,,B,] | [B,,B,][B,,B,] [B,,B,][D,B,] | [F,B,][F,C] [F,C][F,A,] | %3
 [F,A,][B,,F,] [B,,F,]2 | [B,,B,][B,,B,] [B,,B,][B,,B,] | [B,,B,][B,,B,] [B,,B,][B,,B,] | %6
 [B,,B,]>[B,,B,] [D,B,][D,B,] | [F,A,][F,C] [B,,B,]2 | [B,,B,]2 [F,A,]>[F,A,] || %9
 [B,,F,]/[B,,F,]/[B,,F,]/[B,,F,]/ [B,,B,]2 | [F,,F,C]/[F,,F,C]/[F,,F,C]/[F,,F,C]/ [F,,F,A,]2 | %11
 [B,,B,]/[B,,F,]/[B,,F,]/[B,,F,]/ [B,,B,]2 | [B,,B,]2 [F,A,]>[F,A,] | %13
 [B,,F,]/[B,,F,]/[B,,F,]/[B,,F,]/ [B,,B,]2 | [D,B,][G,C] [F,C]>[F,,F,A,] | [B,,F,]6 | x6 |] %17

